dist/img/logo.svg

<svg width="217" height="32" viewBox="0 0 217 32" fill="none" xmlns="http://www.w3.org/2000/svg">
<path d="M24.684 10.32V0.991987H0V10.32H4.62V5.61199H10.032V26.38H5.324V31H19.36V26.38H14.652V5.61199H20.064V10.32H24.684Z" fill="white"/>
<path d="M33.0911 7.76799C33.0911 6.57999 34.0591 5.56799 35.2911 5.56799H40.7911C42.9471 5.56799 44.6631 7.32799 44.6631 9.43999C44.6631 11.552 42.9031 13.312 40.7471 13.312H33.5751C33.2671 11.376 33.0911 9.52799 33.0911 7.76799ZM34.7191 17.932H39.4711C39.8671 18.416 40.3951 19.208 41.1431 20.22C41.8911 21.232 42.4631 21.936 42.8151 22.42C43.2111 22.904 43.7391 23.52 44.3991 24.356C45.0591 25.192 45.6311 25.808 46.0711 26.204C46.9951 26.952 48.5791 28.448 49.9431 29.02C52.0111 30.032 54.8271 30.956 58.3031 31V26.6C53.1551 26.6 48.5351 23.432 44.4431 17.096C47.2591 15.864 49.2831 12.784 49.2831 9.43999C49.2831 7.10799 48.4471 5.08399 46.7751 3.45599C45.1471 1.78399 43.1231 0.947988 40.7911 0.947988H35.2911C33.3991 0.947988 31.7711 1.60799 30.4511 2.97199C29.1311 4.33599 28.4711 5.91999 28.4711 7.76799C28.4711 16.172 31.3751 24.224 37.2271 31.924L40.9231 29.196C37.9751 25.236 35.9071 21.496 34.7191 17.932Z" fill="white"/>
<path d="M90.1326 15.952C90.1326 11.816 88.5926 8.16399 85.5126 4.95199C82.4766 1.73999 78.9126 0.155988 74.8646 0.155988C70.8606 0.155988 67.2966 1.73999 64.2166 4.95199C61.1806 8.16399 59.6406 11.772 59.6406 15.864C59.6406 20.132 61.1366 23.872 64.1726 26.996C67.2086 30.12 70.7726 31.704 74.8646 31.704C78.9566 31.704 82.5206 30.12 85.5566 26.996C88.5926 23.872 90.1326 20.176 90.1326 15.952ZM85.5126 15.952C85.5126 18.856 84.4566 21.452 82.3006 23.696C80.1886 25.94 77.7246 27.084 74.8646 27.084C72.0046 27.084 69.5406 25.94 67.4286 23.696C65.3166 21.452 64.2606 18.856 64.2606 15.952C64.2606 13.048 65.3166 10.452 67.4286 8.20799C69.5406 5.91999 72.0046 4.77599 74.8646 4.77599C77.7246 4.77599 80.1886 5.91999 82.3006 8.16399C84.4566 10.408 85.5126 13.004 85.5126 15.952Z" fill="white"/>
<path d="M106.234 20.968C109.974 20.968 112.966 19.868 115.21 17.712C117.498 15.556 118.642 12.96 118.642 10.012C118.642 7.19599 117.674 4.86399 115.782 2.97199C113.89 1.07999 111.47 0.155988 108.566 0.155988C106.278 0.155988 104.166 0.595987 102.274 1.43199C100.382 2.26799 98.1375 3.80799 95.5415 6.05199L98.5335 9.57199C100.602 7.76799 102.318 6.53599 103.726 5.87599C105.134 5.21599 106.674 4.81999 108.346 4.77599C111.866 4.77599 114.022 6.79999 114.022 10.012C114.022 11.64 113.362 13.136 112.042 14.412C110.722 15.688 108.786 16.348 106.234 16.348C102.318 16.348 100.206 14.676 98.0495 11.552L97.0815 12.168C96.4215 12.608 95.8055 13.048 95.1455 13.488L94.1335 14.104C96.8175 18.724 97.3015 24.356 95.4975 31H100.25C100.822 28.756 101.174 26.82 101.218 25.236C101.262 23.608 101.174 21.804 100.866 19.824C102.582 20.572 104.342 20.968 106.234 20.968Z" fill="white"/>
<path d="M127.901 0.991987H123.281V31H127.901V0.991987Z" fill="white"/>
<path d="M132.56 15.996C132.472 20.264 134.012 23.96 137.224 27.172C140.436 30.384 144.176 31.88 148.356 31.748C150.512 31.748 153.196 31.044 156.496 29.68L154.736 25.412C151.964 26.556 149.808 27.128 148.356 27.128C145.408 27.26 142.768 26.16 140.48 23.916C138.236 21.628 137.136 18.988 137.18 15.996C137.048 13.048 138.148 10.408 140.392 8.16399C142.68 5.87599 145.32 4.77599 148.312 4.81999C149.852 4.81999 152.008 5.39199 154.736 6.53599L156.496 2.26799C153.196 0.903989 150.468 0.199987 148.312 0.199987C144.044 0.111988 140.348 1.69599 137.136 4.90799C133.924 8.11999 132.428 11.816 132.56 15.996Z" fill="white"/>
<path d="M173.915 0.991987H168.327L157.415 31H162.343L164.719 24.4H177.523L179.943 31H184.827L173.915 0.991987ZM166.391 19.78L171.099 6.84399L175.807 19.78H166.391Z" fill="white"/>
<path d="M193.041 26.38V0.991987H188.421V31H203.821V26.38H193.041Z" fill="white"/>
<path d="M215.177 29.196C213.197 26.468 212.185 24.18 212.185 22.332C212.185 20.484 212.713 18.812 213.813 17.316C215.529 14.984 216.365 12.432 216.365 9.61599C216.365 6.62399 215.309 3.93999 212.449 0.0239868L208.753 2.75199C210.733 5.47999 211.745 7.76799 211.745 9.61599C211.745 11.42 211.173 13.092 210.073 14.588C208.401 16.876 207.565 19.472 207.565 22.332C207.565 25.236 208.885 28.448 211.481 31.924L215.177 29.196Z" fill="white"/>
</svg>

<svg width="217" height="32" fill="none" xmlns="http://www.w3.org/2000/svg"><path d="M24.684 10.32V.992H0v9.328h4.62V5.612h5.412V26.38H5.324V31H19.36v-4.62h-4.708V5.612h5.412v4.708h4.62zm8.407-2.552c0-1.188.968-2.2 2.2-2.2h5.5a3.878 3.878 0 0 1 3.872 3.872c0 2.112-1.76 3.872-3.916 3.872h-7.172c-.308-1.936-.484-3.784-.484-5.544zm1.628 10.164h4.752c.396.484.924 1.276 1.672 2.288.748 1.012 1.32 1.716 1.672 2.2.396.484.924 1.1 1.584 1.936.66.836 1.232 1.452 1.672 1.848.924.748 2.508 2.244 3.872 2.816a19.475 19.475 0 0 0 8.36 1.98v-4.4c-5.148 0-9.768-3.168-13.86-9.504 2.816-1.232 4.84-4.312 4.84-7.656 0-2.332-.836-4.356-2.508-5.984C45.147 1.784 43.123.948 40.791.948h-5.5c-1.892 0-3.52.66-4.84 2.024-1.32 1.364-1.98 2.948-1.98 4.796 0 8.404 2.904 16.456 8.756 24.156l3.696-2.728c-2.948-3.96-5.016-7.7-6.204-11.264zm55.414-1.98c0-4.136-1.54-7.788-4.62-11C82.477 1.74 78.913.156 74.865.156c-4.004 0-7.568 1.584-10.648 4.796-3.036 3.212-4.576 6.82-4.576 10.912 0 4.268 1.496 8.008 4.532 11.132 3.036 3.124 6.6 4.708 10.692 4.708 4.092 0 7.656-1.584 10.692-4.708 3.036-3.124 4.576-6.82 4.576-11.044zm-4.62 0c0 2.904-1.056 5.5-3.212 7.744-2.112 2.244-4.576 3.388-7.436 3.388-2.86 0-5.324-1.144-7.436-3.388-2.112-2.244-3.168-4.84-3.168-7.744s1.056-5.5 3.168-7.744c2.112-2.288 4.576-3.432 7.436-3.432 2.86 0 5.324 1.144 7.436 3.388 2.156 2.244 3.212 4.84 3.212 7.788zm20.721 5.016c3.74 0 6.732-1.1 8.976-3.256 2.288-2.156 3.432-4.752 3.432-7.7 0-2.816-.968-5.148-2.86-7.04C113.89 1.08 111.47.156 108.566.156c-2.288 0-4.4.44-6.292 1.276-1.892.836-4.136 2.376-6.733 4.62l2.993 3.52c2.068-1.804 3.784-3.036 5.192-3.696a11.504 11.504 0 0 1 4.62-1.1c3.52 0 5.676 2.024 5.676 5.236 0 1.628-.66 3.124-1.98 4.4-1.32 1.276-3.256 1.936-5.808 1.936-3.916 0-6.028-1.672-8.184-4.796l-.968.616c-.66.44-1.276.88-1.936 1.32l-1.013.616c2.684 4.62 3.169 10.252 1.365 16.896h4.752c.572-2.244.924-4.18.968-5.764a29.836 29.836 0 0 0-.352-5.412c1.716.748 3.476 1.144 5.368 1.144zM127.901.992h-4.62V31h4.62V.992zm4.659 15.004c-.088 4.268 1.452 7.964 4.664 11.176 3.212 3.212 6.952 4.708 11.132 4.576 2.156 0 4.84-.704 8.14-2.068l-1.76-4.268c-2.772 1.144-4.928 1.716-6.38 1.716-2.948.132-5.588-.968-7.876-3.212-2.244-2.288-3.344-4.928-3.3-7.92-.132-2.948.968-5.588 3.212-7.832 2.288-2.288 4.928-3.388 7.92-3.344 1.54 0 3.696.572 6.424 1.716l1.76-4.268C153.196.904 150.468.2 148.312.2c-4.268-.088-7.964 1.496-11.176 4.708-3.212 3.212-4.708 6.908-4.576 11.088zM173.915.992h-5.588L157.415 31h4.928l2.376-6.6h12.804l2.42 6.6h4.884L173.915.992zm-7.524 18.788l4.708-12.936 4.708 12.936h-9.416zm26.65 6.6V.992h-4.62V31h15.4v-4.62h-10.78zm22.136 2.816c-1.98-2.728-2.992-5.016-2.992-6.864 0-1.848.528-3.52 1.628-5.016 1.716-2.332 2.552-4.884 2.552-7.7 0-2.992-1.056-5.676-3.916-9.592l-3.696 2.728c1.98 2.728 2.992 5.016 2.992 6.864 0 1.804-.572 3.476-1.672 4.972-1.672 2.288-2.508 4.884-2.508 7.744 0 2.904 1.32 6.116 3.916 9.592l3.696-2.728z" fill="#fff"/></svg>
